packages/core/src/svgs/tokens/mono/EDU.svg

<svg width="24" height="24" viewBox="0 0 24 24" fill="none" xmlns="http://www.w3.org/2000/svg">
<path d="M2.625 17.0595V15.6382L10.75 19.8083V13.6951L12.5749 12.4963C12.6019 12.5827 12.6249 12.6683 12.6249 12.8425V20.8301C12.6249 22.1601 11.2131 22.1514 10.5993 21.7989C8.56249 20.63 3.74937 18.2395 3.28688 18.0313C2.82562 17.8226 2.63312 17.297 2.625 17.0595Z" fill="white"/>
<path d="M8.24998 14.7812L2.625 11.6543V13.7343L8.24998 16.808V14.7812Z" fill="white"/>
<path d="M2.625 9.35623L10.7524 13.6937L12.5787 12.5074C12.5787 12.5074 12.3769 12.2905 12.1418 12.1431L2.84562 7.11743C2.67687 7.25306 2.625 7.49431 2.625 7.59307V9.35623Z" fill="white"/>
<path d="M11.2666 2.17883L2.84473 7.11757L4.64035 8.15944L7.5816 6.52757L15.1372 10.8606L16.8284 9.69193C16.7241 9.53574 16.4554 9.2976 16.2872 9.2082L9.57351 5.43321L12.0884 4.04571L19.4966 8.31257L21.2266 7.16132C21.1035 6.90507 20.8066 6.71446 20.6546 6.6207L12.7922 2.17883C12.1272 1.86196 11.5253 2.03384 11.2666 2.17883Z" fill="white"/>
<path d="M15.125 21.565V10.8681L16.825 9.68994C16.9638 9.84 17 10.09 17 10.1807V20.3531L15.125 21.565Z" fill="white"/>
<path d="M19.5 18.8851V8.31756L21.2 7.15381C21.3388 7.30193 21.375 7.54881 21.375 7.63881V17.1931C21.375 17.1931 21.375 17.5931 21.0925 17.7963L19.5 18.8851Z" fill="white"/>
</svg>

<svg xmlns="http://www.w3.org/2000/svg" width="24" height="24" fill="none" viewBox="0 0 24 24">
    <path fill="#fff" d="M2.625 17.06v-1.422l8.125 4.17v-6.113l1.825-1.199c.027.087.05.172.05.346v7.988c0 1.33-1.412 1.321-2.026.969-2.037-1.169-6.85-3.56-7.312-3.768-.461-.208-.654-.734-.662-.971"/>
    <path fill="#fff" d="m8.25 14.781-5.625-3.127v2.08l5.625 3.074zM2.625 9.356l8.127 4.338 1.827-1.187s-.202-.216-.437-.364L2.846 7.117c-.17.136-.221.377-.221.476z"/>
    <path fill="#fff" d="M11.267 2.179 2.845 7.118 4.64 8.159l2.942-1.631 7.555 4.333 1.691-1.17a1.9 1.9 0 0 0-.54-.483L9.573 5.433l2.514-1.387 7.409 4.267 1.73-1.152c-.123-.256-.42-.447-.572-.54l-7.863-4.442c-.665-.317-1.267-.145-1.525 0"/>
    <path fill="#fff" d="M15.125 21.565V10.868l1.7-1.178c.139.15.175.4.175.49v10.173zm4.375-2.68V8.318l1.7-1.164c.139.148.175.395.175.485v9.554s0 .4-.282.603z"/>
</svg>
